dist/images/guide.svg

<svg width="64" height="64" viewBox="0 0 64 64" fill="none" xmlns="http://www.w3.org/2000/svg">
<path d="M34.9907 25.1768C35.6811 25.1768 36.2407 24.6171 36.2407 23.9268V18.9626C36.2407 18.2723 35.6811 17.7126 34.9907 17.7126C34.3003 17.7126 33.7407 18.2723 33.7407 18.9626V23.9268C33.7407 24.6171 34.3003 25.1768 34.9907 25.1768Z" fill="white"/>
<path d="M34.9907 15.1954C35.6811 15.1954 36.2407 14.6358 36.2407 13.9454V13.9383C36.2407 13.2479 35.6811 12.6918 34.9907 12.6918C34.3003 12.6918 33.7407 13.2549 33.7407 13.9453C33.7407 14.6356 34.3003 15.1954 34.9907 15.1954Z" fill="white"/>
<path d="M56.875 0H8.66988C7.12875 0 5.875 1.25375 5.875 2.79487V58.041C5.875 61.3268 8.54825 64 11.8343 64H56.875C57.5654 64 58.125 63.4404 58.125 62.75V1.25C58.125 0.559625 57.5654 0 56.875 0ZM8.375 2.79487C8.375 2.635 8.51013 2.5 8.66988 2.5H13.9327V52.0785H11.8343C10.5455 52.0785 9.351 52.49 8.375 53.1884V2.79487ZM55.625 52.0785H36.4825C35.7921 52.0785 35.2325 52.6381 35.2325 53.3285C35.2325 54.0189 35.7921 54.5785 36.4825 54.5785H55.625V61.5H11.8343C9.92688 61.5 8.375 59.9482 8.375 58.041C8.375 56.1319 9.92688 54.5785 11.8343 54.5785H25.2569C25.9472 54.5785 26.5069 54.0189 26.5069 53.3285C26.5069 52.6381 25.9472 52.0785 25.2569 52.0785H16.4329V2.5H55.625V52.0785Z" fill="white"/>
<path d="M34.9904 30.8317C41.551 30.8317 46.8885 25.493 46.8885 18.9307C46.8885 12.3705 41.551 7.0332 34.9904 7.0332C28.4298 7.0332 23.0923 12.3703 23.0923 18.9307C23.0924 25.493 28.4298 30.8317 34.9904 30.8317ZM34.9904 9.53333C40.1725 9.53333 44.3885 13.7491 44.3885 18.9308C44.3885 24.1146 40.1725 28.3318 34.9904 28.3318C29.8083 28.3318 25.5923 24.1146 25.5923 18.9308C25.5924 13.749 29.8083 9.53333 34.9904 9.53333Z" fill="white"/>
<path d="M24.7429 46.4858H44.1043C45.2547 46.4858 46.1905 45.5499 46.1905 44.3996V39.1166C46.1905 37.9682 45.2547 37.0339 44.1043 37.0339H24.7429C23.5944 37.0339 22.6602 37.9682 22.6602 39.1166V44.3996C22.6603 45.5499 23.5945 46.4858 24.7429 46.4858ZM25.1603 39.5339H43.6907V43.9858H25.1603V39.5339Z" fill="white"/>
<path d="M30.8696 52.0785C30.1793 52.0785 29.6196 52.6381 29.6196 53.3285C29.6196 54.0189 30.1793 54.5785 30.8696 54.5785H30.8768C31.5671 54.5785 32.1233 54.0189 32.1233 53.3285C32.1233 52.6381 31.56 52.0785 30.8696 52.0785Z" fill="white"/>
</svg>

<svg width="64" height="64" fill="none" xmlns="http://www.w3.org/2000/svg"><path d="M34.99 25.177c.691 0 1.25-.56 1.25-1.25v-4.964a1.25 1.25 0 00-2.5 0v4.964c0 .69.56 1.25 1.25 1.25zm0-9.982c.691 0 1.25-.56 1.25-1.25v-.007c0-.69-.559-1.246-1.25-1.246a1.253 1.253 0 000 2.503z" fill="#fff"/><path d="M56.875 0H8.67a2.798 2.798 0 00-2.795 2.795V58.04a5.966 5.966 0 005.96 5.96h45.04c.69 0 1.25-.56 1.25-1.25V1.25c0-.69-.56-1.25-1.25-1.25zm-48.5 2.795c0-.16.135-.295.295-.295h5.263v49.578h-2.099a5.925 5.925 0 00-3.459 1.11V2.795zm47.25 49.283H36.483a1.25 1.25 0 100 2.5h19.142V61.5h-43.79a3.463 3.463 0 01-3.46-3.459 3.465 3.465 0 013.46-3.462h13.422a1.25 1.25 0 000-2.5h-8.824V2.5h39.192v49.578z" fill="#fff"/><path d="M34.99 30.832c6.561 0 11.898-5.339 11.898-11.901 0-6.56-5.337-11.898-11.898-11.898-6.56 0-11.898 5.337-11.898 11.898 0 6.562 5.338 11.9 11.898 11.9zm0-21.299c5.182 0 9.398 4.216 9.398 9.398 0 5.184-4.215 9.4-9.398 9.4-5.182 0-9.398-4.216-9.398-9.4 0-5.182 4.216-9.398 9.398-9.398zM24.743 46.486h19.361a2.09 2.09 0 002.087-2.086v-5.283a2.087 2.087 0 00-2.087-2.083H24.743a2.085 2.085 0 00-2.083 2.083V44.4c0 1.15.934 2.086 2.083 2.086zm.417-6.952h18.53v4.452H25.16v-4.452zm5.71 12.544a1.25 1.25 0 000 2.5h.007c.69 0 1.246-.56 1.246-1.25s-.563-1.25-1.253-1.25z" fill="#fff"/></svg>
